svgs/regular/ring.svg

<svg xmlns="http://www.w3.org/2000/svg" viewBox="0 0 512 512"><!-- Font Awesome Pro 5.15.3 by @fontawesome - https://fontawesome.com License - https://fontawesome.com/license (Commercial License) --><path d="M256 64C110.06 64 0 125.91 0 208v98.13C0 384.48 114.62 448 256 448s256-63.52 256-141.87V208c0-82.09-110.06-144-256-144zm0 48c110.46 0 200 35.82 200 80 0 9.09-3.97 17.79-10.95 25.93C398.24 192.23 331 176 256 176s-142.24 16.23-189.05 41.93C59.97 209.79 56 201.09 56 192c0-44.18 89.54-80 200-80zm141.7 136.45C361.48 262.99 311.38 272 256 272s-105.48-9.01-141.7-23.55C150 234.3 198.38 224 256 224s106 10.3 141.7 24.45zm66.3 57.68C464 344.4 382.97 400 256 400S48 344.41 48 306.13v-39.78C94.43 298.78 170.15 320 256 320s161.57-21.22 208-53.64v39.77z"/></svg>

<svg xmlns="http://www.w3.org/2000/svg" viewBox="0 0 512 512"><!--! Font Awesome Pro 6.0.0 by @fontawesome - https://fontawesome.com License - https://fontawesome.com/license (Commercial License) Copyright 2022 Fonticons, Inc. --><path d="M256 64C109.1 64 0 125.9 0 208v98.13C0 384.5 114.6 448 256 448s256-63.5 256-141.9V208C512 125.9 401.1 64 256 64zM256 112c110.5 0 200 35.88 200 80c0 9.125-4 17.75-11 25.88C398.2 192.2 331 176 256 176S113.8 192.2 67 217.9C60 209.8 56 201.1 56 192C56 147.9 145.5 112 256 112zM397.8 248.5C361.5 263 311.4 272 256 272S150.5 263 114.2 248.5C149.1 234.2 198.4 224 256 224S361.1 234.2 397.8 248.5zM464 306.1C464 344.4 383 400 256 400s-208-55.63-208-93.88V266.4C94.38 298.8 170.1 320 256 320s161.6-21.25 208-53.63V306.1z"/></svg>
